public/front/assets/imgs/brand/omm.svg

<svg width="164" height="38" viewBox="0 0 164 38" fill="none" xmlns="http://www.w3.org/2000/svg">
<path d="M40.3267 15.6747C40.8873 13.5662 41.7118 11.5215 42.7166 9.58666C41.4326 7.66284 39.843 5.87534 37.9763 4.51438C34.5398 2.01011 30.1557 0.950362 25.8024 0.627161C21.1589 0.284171 16.5527 0.778868 12.3093 2.58396C8.41107 4.24174 4.82068 7.00765 2.6594 10.5783C0.922468 13.4475 0.108967 16.84 0.010028 20.2963C-0.0823154 23.5327 0.451957 26.8285 2.07676 29.4998C3.62241 32.0415 6.15526 34.0159 8.89478 35.3307C12.2565 36.9467 15.9283 37.5711 19.644 37.7228C23.7708 37.8921 27.9549 37.4766 31.752 35.9749C34.619 34.8426 37.264 33.0902 39.555 31.0323C39.2625 28.6468 39.179 26.237 39.2515 23.8273C39.3351 21.079 39.6231 18.3263 40.3289 15.6747H40.3267ZM29.2763 19.8851C28.764 21.4484 27.7482 22.7764 26.4378 23.6163C25.0878 24.4825 23.4213 24.8343 21.7921 24.9069C20.7917 24.9508 19.8045 24.8915 18.8481 24.6232C17.3838 24.2143 15.9898 23.3194 15.1126 22.0662C14.0638 20.5711 13.7472 18.566 14.1759 16.7411C14.6618 14.6699 16.1064 12.8341 17.9114 11.8711C19.5384 11.0048 21.4557 10.8487 23.3817 11.1191C25.3363 11.3918 27.2975 12.1019 28.4386 13.5354C29.7424 15.1712 29.9754 17.7503 29.2763 19.8851Z" fill="black"/>
<path d="M147.487 13.1398C147.417 14.9603 147.894 16.8291 149.002 18.1395C150.159 19.5049 152.001 20.2634 153.894 20.5295C156.442 20.8879 159.083 20.3558 161.007 18.7837C162.66 17.4294 163.784 15.3055 163.9 13.2014C164.021 11.0357 163.076 8.88981 161.341 7.58601C159.465 6.17668 156.664 5.75234 154.134 6.1437C152.03 6.4691 150.11 7.35735 148.932 8.86123C148.017 10.0287 147.547 11.5678 147.487 13.142V13.1398Z" fill="black"/>
<path d="M41.6989 20.0677C42.1936 16.5718 43.1192 12.9946 44.9617 9.92752C46.2875 7.72227 48.086 5.78086 50.2956 4.43749C52.5888 3.04134 55.3239 2.28941 58.0217 2.57303C60.3039 2.81268 62.5597 3.79328 64.1471 5.34773C65.7367 6.90217 66.6558 9.02827 67.544 11.1566C67.92 12.058 68.2894 12.9595 69.0149 13.5949C69.4546 13.9796 70.0241 14.2677 70.5892 14.294C71.3675 14.3292 72.137 13.8653 72.7856 13.309C74.3159 11.9986 75.1821 10.176 76.1166 8.54677C76.9696 7.06268 77.8821 5.73909 79.0913 4.60459C80.5996 3.18865 82.5718 2.06954 84.7221 2.01677C86.6987 1.9684 88.827 2.81928 90.0692 4.40891C90.9531 5.53901 91.3884 7.04289 92.2415 8.13782C92.6636 8.67868 93.1869 9.12061 93.7563 9.15799C94.4049 9.19977 95.1151 8.71826 95.634 8.08505C96.3288 7.23857 96.6805 6.11946 97.239 5.13446C98.3163 3.24142 100.163 1.84528 102.149 1.57265C104.272 1.28023 106.557 2.27621 108.098 3.79988C109.329 5.01793 110.084 6.57018 110.754 8.173C111.242 9.33608 111.684 10.5256 112.632 11.4336C113.206 11.9833 113.966 12.4296 114.677 12.4692C115.42 12.5109 116.11 12.1108 116.693 11.5985C117.963 10.4794 118.713 8.83039 119.586 7.28694C120.51 5.65114 121.569 4.13407 122.961 2.98858C124.458 1.75733 126.343 0.954825 128.335 0.58765C131.085 0.0819607 134.042 0.405162 136.459 1.69137C138.035 2.53126 139.381 3.78229 140.394 5.2356C142.347 8.03888 143.059 11.5985 143.411 15.0284C143.758 18.4077 143.756 21.6573 143.389 25.1708C143.131 27.6267 142.698 30.2101 141.08 31.8744C139.937 33.0485 138.206 33.7631 136.481 33.7653C133.972 33.7653 131.479 32.2548 130.335 30.1309C129.394 28.3852 129.366 26.2239 129.183 23.6075C129.007 21.0615 128.686 18.0845 127.664 16.8159C127.092 16.1079 126.301 15.932 125.588 16.2926C124.608 16.7895 123.779 18.3044 123.152 19.7005C122.299 21.6068 121.824 23.2909 120.798 25.0059C120.024 26.2965 118.937 27.6025 117.574 28.2972C116.614 28.7875 115.514 28.9722 114.399 28.9414C112.394 28.8843 110.334 28.1257 109.019 26.7164C107.856 25.4698 107.276 23.7175 106.768 21.8882C106.425 20.6503 106.113 19.3773 105.425 18.3967C104.923 17.68 104.22 17.1193 103.472 17.0863C102.742 17.0533 101.97 17.5239 101.432 18.1922C100.779 19.0057 100.471 20.1117 100.234 21.1846C99.7125 23.546 99.5366 25.7402 99.1892 28.0114C98.888 29.9814 98.4571 32.0108 97.1994 33.3783C96.1858 34.482 94.6358 35.157 93.0154 35.3461C91.2785 35.5484 89.458 35.1944 88.2509 34.3831C86.9053 33.4795 86.3161 32.0086 85.9357 30.0891C85.3135 26.9583 85.2432 22.6379 84.3153 19.7995C83.9943 18.8189 83.57 18.0142 82.84 17.7459C82.3761 17.5744 81.7891 17.6206 81.29 17.9372C80.4853 18.4473 79.9092 19.6631 79.4101 20.835C78.2339 23.5921 77.4753 26.092 75.8725 27.9762C75.0788 28.9085 74.0806 29.689 72.9219 30.1617C71.3587 30.7993 69.5074 30.8785 67.9134 30.2892C66.5414 29.7813 65.3586 28.7787 64.5231 27.5783C63.5007 26.1096 62.9972 24.3463 62.3948 22.528C62.1221 21.7013 61.8275 20.8614 61.3614 20.1842C60.8689 19.4719 60.1829 18.9376 59.5321 18.8562C58.6593 18.7485 57.8502 19.4565 57.2697 20.47C56.7421 21.3891 56.4013 22.5588 56.1418 23.6889C55.5064 26.4636 55.3635 28.9964 54.7325 31.5556C54.3763 33.0002 53.8662 34.4535 52.868 35.4033C51.7203 36.4982 49.9262 36.9291 48.1651 36.8478C46.2523 36.7598 44.3812 36.0651 43.2335 34.7899C41.844 33.2442 41.5186 30.8477 41.3713 28.5831C41.18 25.6061 41.2965 22.8622 41.6923 20.0655L41.6989 20.0677Z" fill="black"/>
</svg>

<svg xmlns="http://www.w3.org/2000/svg" width="164" height="38" fill="none"><path fill="#000" d="M40.327 15.675c.56-2.109 1.385-4.154 2.39-6.088-1.284-1.924-2.874-3.712-4.74-5.073C34.54 2.01 30.155.95 25.801.627 21.16.284 16.552.78 12.31 2.584c-3.898 1.658-7.488 4.424-9.65 7.994C.922 13.448.11 16.84.01 20.296c-.092 3.237.442 6.532 2.067 9.204 1.545 2.541 4.078 4.516 6.818 5.83 3.362 1.617 7.033 2.241 10.749 2.393 4.127.17 8.31-.246 12.108-1.748 2.867-1.132 5.512-2.885 7.803-4.943-.292-2.385-.376-4.795-.303-7.205.083-2.748.371-5.5 1.077-8.152zm-11.05 4.21c-.513 1.563-1.529 2.891-2.84 3.731-1.35.867-3.016 1.218-4.645 1.29-1 .045-1.988-.014-2.944-.283-1.464-.409-2.858-1.304-3.735-2.557-1.05-1.495-1.366-3.5-.937-5.325.486-2.071 1.93-3.907 3.735-4.87 1.627-.866 3.545-1.022 5.47-.752 1.955.273 3.916.983 5.058 2.416 1.303 1.636 1.536 4.215.837 6.35M147.487 13.14c-.07 1.82.407 3.69 1.515 5 1.157 1.365 2.999 2.123 4.892 2.39 2.548.358 5.189-.174 7.113-1.746 1.653-1.355 2.777-3.478 2.893-5.583.121-2.165-.824-4.311-2.559-5.615-1.876-1.41-4.677-1.834-7.207-1.442-2.104.325-4.024 1.213-5.202 2.717-.915 1.168-1.385 2.707-1.445 4.281zM41.699 20.068c.495-3.496 1.42-7.073 3.263-10.14 1.325-2.206 3.124-4.147 5.334-5.49 2.293-1.397 5.028-2.149 7.726-1.865 2.282.24 4.538 1.22 6.125 2.775 1.59 1.554 2.509 3.68 3.397 5.809.376.901.745 1.803 1.47 2.438.44.385 1.01.673 1.575.699.779.035 1.548-.429 2.197-.985 1.53-1.31 2.396-3.133 3.33-4.762.854-1.484 1.766-2.808 2.975-3.942 1.509-1.416 3.48-2.535 5.631-2.588 1.977-.049 4.105.802 5.347 2.392.884 1.13 1.32 2.634 2.172 3.729.423.54.946.983 1.515 1.02.649.042 1.36-.44 1.878-1.073.695-.846 1.046-1.966 1.605-2.95 1.077-1.894 2.924-3.29 4.91-3.562 2.123-.293 4.408.703 5.949 2.227 1.231 1.218 1.986 2.77 2.656 4.373.488 1.163.93 2.353 1.878 3.26.574.55 1.334.997 2.045 1.036.743.042 1.433-.358 2.016-.87 1.27-1.12 2.02-2.769 2.893-4.312.924-1.636 1.983-3.153 3.375-4.298 1.497-1.232 3.382-2.034 5.374-2.401 2.75-.506 5.707-.183 8.124 1.103 1.576.84 2.922 2.091 3.935 3.545 1.953 2.803 2.665 6.363 3.017 9.792.347 3.38.345 6.63-.022 10.143-.258 2.456-.691 5.04-2.309 6.703-1.143 1.174-2.874 1.89-4.599 1.891-2.509 0-5.002-1.51-6.146-3.634-.941-1.746-.969-3.907-1.152-6.523-.176-2.547-.497-5.524-1.519-6.792-.572-.708-1.363-.884-2.076-.523-.98.497-1.809 2.011-2.436 3.408-.853 1.906-1.328 3.59-2.354 5.305-.774 1.29-1.861 2.596-3.224 3.291-.96.49-2.06.675-3.175.644-2.005-.057-4.065-.815-5.38-2.225-1.163-1.246-1.743-2.998-2.251-4.828-.343-1.238-.655-2.51-1.343-3.491-.502-.717-1.205-1.278-1.953-1.31-.73-.034-1.502.437-2.04 1.105-.653.814-.961 1.92-1.198 2.993-.521 2.361-.697 4.555-1.045 6.826-.301 1.97-.732 4-1.99 5.367-1.013 1.104-2.563 1.779-4.184 1.968-1.737.202-3.557-.152-4.764-.963-1.346-.904-1.935-2.374-2.315-4.294-.623-3.13-.693-7.451-1.62-10.29-.322-.98-.746-1.785-1.476-2.053-.464-.172-1.05-.125-1.55.191-.805.51-1.38 1.726-1.88 2.898-1.176 2.757-1.935 5.257-3.537 7.141-.794.933-1.792 1.713-2.951 2.186-1.563.637-3.415.716-5.009.127-1.372-.508-2.554-1.51-3.39-2.71-1.022-1.47-1.526-3.233-2.128-5.051-.273-.827-.568-1.667-1.034-2.344-.492-.712-1.178-1.246-1.829-1.328-.873-.108-1.682.6-2.262 1.614-.528.92-.869 2.089-1.128 3.219-.636 2.775-.779 5.307-1.41 7.867-.356 1.444-.866 2.897-1.864 3.847-1.148 1.095-2.942 1.526-4.703 1.445-1.913-.088-3.784-.783-4.931-2.058-1.39-1.546-1.715-3.942-1.863-6.207a41 41 0 0 1 .321-8.517z"/></svg>
